hosted_logos/deepshore.svg

<svg xmlns="http://www.w3.org/2000/svg" role="img" viewBox="237.99 156.99 884.52 560.02"><style>svg {isolation:isolate}</style><defs><clipPath id="a"><path d="M0 0h1360.63v907.09H0z"/></clipPath></defs><g clip-path="url(#a)"><path fill="#6EE100" d="M754.49 265.56c-40.57 25.33-96 50.37-179.8 59.05h.1c46.55 32.16 94.87 72.77 176.92 77.81l.08-.09c-34.69-42.37-9.13-110.41 2.71-136.77"/><path fill="#3C4B5A" d="M991.42 316.06c-102-1.41-138.9-60.94-140.32-113.38-2.57 24.17-7.39 56.76-24.68 94.89 48.22 14.51 106.18 21.22 165 18.49z"/><path fill="#96F528" d="M706.54 174.33c-57.9 9.93-107.1 67.16-131.85 150.28 84.09-8.71 139.6-33.88 180.2-59.3-35.14-23.61-54.53-54.51-48.35-91"/><path fill="#96F528" d="M754.67 265.17c-11.77 26.09-37.75 94.59-2.89 137.16 37.36-37.66 60.29-73.12 74.64-104.76-27.59-8.3-52-19.15-71.53-32.26l-.22-.14m-251.96 23.16c-32.91 20.11-68.57 33.95-109.25 31.23 72.26 9.62 131.76 10.19 181.33 5-23.15-16-45.87-29.88-72.08-36.27"/><path d="M826.42 297.57c17.29-38.13 22.11-70.72 24.68-94.89-26.21 7.8-52.64 35.36-96.21 62.63 19.53 13.11 43.94 24 71.53 32.26M751.7 402.42c-82-5-130.36-45.66-176.91-77.81h-.1c-17.66 59.31-22.87 131.8-9.89 209.71 85.65-45.2 145.23-89.92 186.9-131.91M502.71 288.33c-35.09-8.55-76.44-3.65-133.5 27.73q7.55 1.17 14.89 2.21l.75.11c3 .42 5.94.8 8.9 1.19 40.55 2.64 76.12-11.18 109-31.24m249.11 114.1c14.15 17.22 38.3 30.18 77.42 34.35 24.126-17.406 47.042-36.429 68.59-56.94-58.93 19.13-106.4 25-146 22.59"/><path fill="#BEFF5A" d="M706.54 174.33c-71-6.45-130.63 69.27-203.83 114 26.18 6.38 48.88 20.25 72 36.22 24.76-83.08 73.94-140.3 131.83-150.22m45.16 228.09c-41.67 42-101.25 86.71-186.9 131.91 72.23-10.48 161.71-23.86 264.48-97.55-39.12-4.17-63.27-17.13-77.42-34.35h-.16m77.58 34.35c27.59 2.94 62.62 1.5 106.86-5.91-18.42-7.09-48.19-15.59-38.27-51-21.546 20.513-44.462 39.537-68.59 56.94"/><path d="M1105.51 652.41h-75.81v15.82h75.81v-15.82zm-75.81-28.79h75.81v16.57h-75.81v-16.57zm75.81 57.78h-75.81V698h75.81v-16.6zm-577-13.17h-75.85v-15.82h75.82l.03 15.82zm-75.82-28h75.82v-16.61h-75.85l.03 16.61zm0 41.21h75.82V698h-75.85l.03-16.56zm543.56-32c0 7.22-5.63 9.35-13.38 9.35h-29.14v-18.7h29.11c7.75 0 13.38 2.13 13.38 9.35m22-.42c0-17-14.76-25.39-33.77-25.39h-52.17V698h21.56v-23.5h21.88l19.65 23.5h25.17l-21.88-25.28c11.69-3.4 19.54-11.26 19.54-23.68M874 638.81c-16.25 0-26.44 8-26.44 22s10.09 22 26.44 22 26.45-8 26.45-22-10.09-22-26.45-22zm0 61.6c-29.42 0-48.43-14.44-48.43-39.61s19-39.62 48.43-39.62 48.54 14.44 48.54 39.62-19.16 39.61-48.54 39.61zm-79.88-76.79v27.72H753v-27.72h-21.68V698H753v-28.81h41.08V698h21.67v-74.38h-21.63zm-73 51.09c0 15.3-14.13 25.7-41.1 25.7-19.12 0-35.16-5.2-46.84-14.55l11.36-13.38c8.82 7.43 21 11.58 35.9 11.58 12.75 0 19.12-2.34 19.12-7.23 0-4.89-6-6.37-21.24-7.64-22.1-1.91-42.17-6.8-42.17-23.37 0-15.93 17.21-24.64 40.79-24.64 15.93 0 30.58 3.82 40.78 11.05l-10.94 13.48c-8.28-5.84-18.27-8.17-29.84-8.28-8.71 0-19.23 1.38-19.23 6.69 0 5 8.6 5.63 21.88 6.69 24.32 2 41.53 6.8 41.53 23.9m-113.78-24.64c0 7.43-5.52 9.88-13.6 9.88H565.6v-19.87h28.14c8.08 0 13.6 2.45 13.6 10m22-.43c0-17.1-13.48-26-33.77-26h-51.64V698h21.67v-22.3h29.95c20.29 0 33.77-8.71 33.77-26m-192.11 18.53h-75.82v-15.82h75.82v15.82zm-75.82-28h75.82v-16.61h-75.82v16.61zm0 41.21h75.82V698h-75.82v-16.56zm-33.05-20.6c0 13.17-10.41 20-26.34 20h-25.21v-40.01H302c15.93 0 26.34 6.8 26.34 20m22.09 0c0-23.37-18.16-37.18-46.73-37.18h-48.58V698h48.58c28.57 0 46.73-13.81 46.73-37.17"/></g></svg>

<?xml version="1.0" encoding="UTF-8" standalone="no"?><!-- Generator: Gravit.io --><svg xmlns="http://www.w3.org/2000/svg" xmlns:xlink="http://www.w3.org/1999/xlink" style="isolation:isolate" viewBox="0 0 1360.63 907.09" width="1360.63pt" height="907.09pt"><defs><clipPath id="_clipPath_e5aQzE7Mudwh2SbiiYCGVfJz0bPJIz0O"><rect width="1360.63" height="907.09"/></clipPath></defs><g clip-path="url(#_clipPath_e5aQzE7Mudwh2SbiiYCGVfJz0bPJIz0O)"><g><rect x="0" y="0" width="1360.63" height="907.09" transform="matrix(1,0,0,1,0,0)" fill="rgb(255,255,255)"/></g><g><path d=" M 754.49 265.56 C 713.92 290.89 658.49 315.93 574.69 324.61 L 574.79 324.61 C 621.34 356.77 669.66 397.38 751.71 402.42 L 751.79 402.33 L 751.79 402.33 C 717.1 359.96 742.66 291.92 754.5 265.56" fill="rgb(110,225,0)"/><path d=" M 991.42 316.06 C 889.42 314.65 852.52 255.12 851.1 202.68 C 848.53 226.85 843.71 259.44 826.42 297.57 C 874.64 312.08 932.6 318.79 991.42 316.06 Z " fill="rgb(60,75,90)"/><path d=" M 706.54 174.33 C 648.64 184.26 599.44 241.49 574.69 324.61 C 658.78 315.9 714.29 290.73 754.89 265.31 C 719.75 241.7 700.36 210.8 706.54 174.31" fill="rgb(150,245,40)"/><path d=" M 754.67 265.17 C 742.9 291.26 716.92 359.76 751.78 402.33 C 789.14 364.67 812.07 329.21 826.42 297.57 C 798.83 289.27 774.42 278.42 754.89 265.31 L 754.67 265.17" fill="rgb(150,245,40)"/><path d=" M 502.71 288.33 C 469.8 308.44 434.14 322.28 393.46 319.56 C 465.72 329.18 525.22 329.75 574.79 324.56 C 551.64 308.56 528.92 294.68 502.71 288.29" fill="rgb(150,245,40)"/><path d=" M 826.42 297.57 C 843.71 259.44 848.53 226.85 851.1 202.68 C 824.89 210.48 798.46 238.04 754.89 265.31 C 774.42 278.42 798.83 289.31 826.42 297.57" fill="rgb(0,0,0)"/><path d=" M 751.7 402.42 C 669.7 397.42 621.34 356.76 574.79 324.61 L 574.69 324.61 C 557.03 383.92 551.82 456.41 564.8 534.32 C 650.45 489.12 710.03 444.4 751.7 402.41" fill="rgb(0,0,0)"/><path d=" M 502.71 288.33 C 467.62 279.78 426.27 284.68 369.21 316.06 Q 376.76 317.23 384.1 318.27 L 384.85 318.38 C 387.85 318.8 390.79 319.18 393.75 319.57 C 434.3 322.21 469.87 308.39 502.75 288.33" fill="rgb(0,0,0)"/><path d=" M 751.86 402.43 C 766.01 419.65 790.16 432.61 829.28 436.78 C 853.406 419.374 876.322 400.351 897.87 379.84 C 838.94 398.97 791.47 404.84 751.87 402.43" fill="rgb(0,0,0)"/><path d=" M 706.54 174.33 C 635.54 167.88 575.91 243.6 502.71 288.33 C 528.89 294.71 551.59 308.58 574.71 324.55 C 599.47 241.47 648.65 184.25 706.54 174.33" fill="rgb(190,255,90)"/><path d=" M 751.7 402.42 C 710.03 444.42 650.45 489.13 564.8 534.33 C 637.03 523.85 726.51 510.47 829.28 436.78 C 790.16 432.61 766.01 419.65 751.86 402.43 L 751.7 402.43" fill="rgb(190,255,90)"/><path d=" M 829.28 436.78 C 856.87 439.72 891.9 438.28 936.14 430.87 C 917.72 423.78 887.95 415.28 897.87 379.87 C 876.324 400.383 853.408 419.407 829.28 436.81" fill="rgb(190,255,90)"/><path d=" M 1105.51 652.41 L 1029.7 652.41 L 1029.7 668.23 L 1105.51 668.23 L 1105.51 652.41 Z  M 1029.7 623.62 L 1105.51 623.62 L 1105.51 640.19 L 1029.7 640.19 L 1029.7 623.62 Z  M 1105.51 681.4 L 1029.7 681.4 L 1029.7 698 L 1105.51 698 L 1105.51 681.4 Z  M 528.51 668.23 L 452.66 668.23 L 452.66 652.41 L 528.48 652.41 L 528.51 668.23 Z  M 452.69 640.23 L 528.51 640.23 L 528.51 623.62 L 452.66 623.62 L 452.69 640.23 Z  M 452.69 681.44 L 528.51 681.44 L 528.51 698 L 452.66 698 L 452.69 681.44 Z  M 996.25 649.44 C 996.25 656.66 990.62 658.79 982.87 658.79 L 953.73 658.79 L 953.73 640.09 L 982.84 640.09 C 990.59 640.09 996.22 642.22 996.22 649.44 M 1018.22 649.02 C 1018.22 632.02 1003.46 623.63 984.45 623.63 L 932.28 623.63 L 932.28 698 L 953.84 698 L 953.84 674.5 L 975.72 674.5 L 995.37 698 L 1020.54 698 L 998.66 672.72 C 1010.35 669.32 1018.2 661.46 1018.2 649.04 M 874 638.81 C 857.75 638.81 847.56 646.81 847.56 660.81 C 847.56 674.81 857.65 682.81 874 682.81 C 890.35 682.81 900.45 674.81 900.45 660.81 C 900.45 646.81 890.36 638.81 874 638.81 Z  M 874 700.41 C 844.58 700.41 825.57 685.97 825.57 660.8 C 825.57 635.63 844.57 621.18 874 621.18 C 903.43 621.18 922.54 635.62 922.54 660.8 C 922.54 685.98 903.38 700.41 874 700.41 Z  M 794.12 623.62 L 794.12 651.34 L 753 651.34 L 753 623.62 L 731.32 623.62 L 731.32 698 L 753 698 L 753 669.19 L 794.08 669.19 L 794.08 698 L 815.75 698 L 815.75 623.62 L 794.12 623.62 Z  M 721.12 674.71 C 721.12 690.01 706.99 700.41 680.02 700.41 C 660.9 700.41 644.86 695.21 633.18 685.86 L 644.54 672.48 C 653.36 679.91 665.54 684.06 680.44 684.06 C 693.19 684.06 699.56 681.72 699.56 676.83 C 699.56 671.94 693.56 670.46 678.32 669.19 C 656.22 667.28 636.15 662.39 636.15 645.82 C 636.15 629.89 653.36 621.18 676.94 621.18 C 692.87 621.18 707.52 625 717.72 632.23 L 706.78 645.71 C 698.5 639.87 688.51 637.54 676.94 637.43 C 668.23 637.43 657.71 638.81 657.71 644.12 C 657.71 649.12 666.31 649.75 679.59 650.81 C 703.91 652.81 721.12 657.61 721.12 674.71 M 607.34 650.07 C 607.34 657.5 601.82 659.95 593.74 659.95 L 565.6 659.95 L 565.6 640.08 L 593.74 640.08 C 601.82 640.08 607.34 642.53 607.34 650.08 M 629.34 649.65 C 629.34 632.55 615.86 623.65 595.57 623.65 L 543.93 623.65 L 543.93 698 L 565.6 698 L 565.6 675.7 L 595.55 675.7 C 615.84 675.7 629.32 666.99 629.32 649.7 M 437.21 668.23 L 361.39 668.23 L 361.39 652.41 L 437.21 652.41 L 437.21 668.23 Z  M 361.39 640.23 L 437.21 640.23 L 437.21 623.62 L 361.39 623.62 L 361.39 640.23 Z  M 361.39 681.44 L 437.21 681.44 L 437.21 698 L 361.39 698 L 361.39 681.44 Z  M 328.34 660.84 C 328.34 674.01 317.93 680.84 302 680.84 L 276.79 680.84 L 276.79 640.83 L 302 640.83 C 317.93 640.83 328.34 647.63 328.34 660.83 M 350.43 660.83 C 350.43 637.46 332.27 623.65 303.7 623.65 L 255.12 623.65 L 255.12 698 L 303.7 698 C 332.27 698 350.43 684.19 350.43 660.83" fill="rgb(0,0,0)"/></g></g></svg>
